X:498
T:Polska # 498
T: efter Melker Andersson
Q: 105
M:3/4
L:1/16
K: G
B2| d2d2 (Bd)BG D4| G2FG A2GA B4| (dB)cd e2d2 c2B2| A2A2 (FG)AFD4|
d2d2 (Bd)BG D4| G2FG A2GA B4| (dB)cd e2d2 c2B2 |1A3G F4 G2 :|2A3G F4 G4 ||
|: d2d2 (Bd)BG (Bd)BG| c2c2 (Ac)AF (Ac)AF| B2B2 (GA)GF G2G2| A2A2 (FG)FE D4|
d2d2 (Bd)BG (Bd)BG| c2c2 (Ac)AF (Ac)AF| B2B2 G2A2 B2c2 |1(AB)AF G8 :|2 (AB)AF G6 ||

